X: 5
T: Eileen O'Brien's
R: reel
M: 4/4
L: 1/8
K: Cmaj
cG^FG AGEA|GCEG c2ed|c2Gc AcGc|AEGE DCA,C|
G,CB,C EGGB|AG^FA GABd|c3d cAGc|AEGE D2AB:|
c2ec gcec|egdB cAGA|_B2dB fBdB|cAGA _BdAB|
Ac ~c2 ecgf|egdB cdef|gefd ecGc|AEGE D2 AB:|

